X: 265
T: Father Kelly's
R: jig
M: 6/8
L: 1/8
K: Gmaj
|:D|GGG BAG|FFF AFD|GGG BAG|BdB cBA|
G2A BAG|FFF AFD|d^cd ((3gfe) d|cAF G2:|
A|B2d gdB|dgB dgB|c2e gec|egc ege|
d2f afd|fad faf|gfg efg|afd cBA|
B2d gdB|dgB dgB|c2e gec|egc ege|
d2f afd|fad faf|d^cd ((3gfe) d|cAF G2A|
|:B2.B {c}BAG|FFF AFD|BBB {c}BAG|BdB cBA|
B2.B {c}BAG|FFF AFD|d^cd ((3gfe) d|1 cAF G2A:|2 cAF G3 |]
F: https://thesession.org/tunes/2156#setting2156

